packages/foundations/assets/icons/functional/images/technology/qr_code_scan.svg

<svg xmlns="http://www.w3.org/2000/svg" width="32" height="32" fill="none"><path fill="#1A1C1F" fill-rule="evenodd" d="M5.019 2.131c-1.087.267-2.125 1.109-2.6 2.109-.359.756-.408 1.065-.414 2.613-.006 1.559-.001 1.58.408 1.91.42.34 1.109.22 1.417-.245l.143-.216L4 6.909l.027-1.392.173-.351a2.22 2.22 0 0 1 1.015-.996c.301-.141.325-.144 1.696-.17l1.391-.027.216-.143c.462-.306.584-.998.25-1.412-.311-.383-.355-.392-1.941-.387-1.176.003-1.48.02-1.808.1m18.528-.02a1.6 1.6 0 0 0-.287.199c-.424.389-.335 1.186.169 1.52l.216.143L25.063 4l1.417.027.347.165c.44.209.772.541.981.981l.165.347.001 1.333c0 1.508.02 1.6.418 1.917.183.146.243.163.564.163.446 0 .732-.163.902-.516.103-.213.112-.334.123-1.59.013-1.581-.023-1.809-.414-2.6a4.07 4.07 0 0 0-2.737-2.124c-.53-.113-3.064-.107-3.283.008M8.96 7.045c-.632.124-1.384.691-1.674 1.264-.278.548-.299.739-.299 2.678 0 1.938.021 2.13.299 2.678.173.342.652.821 1.011 1.013.532.285.74.309 2.69.309s2.157-.024 2.689-.309c.347-.185.817-.655 1.002-1.002.285-.532.309-.739.309-2.689s-.024-2.158-.309-2.69c-.322-.603-1.042-1.132-1.712-1.257-.349-.065-3.668-.061-4.006.005m9.947.017c-.433.109-.769.298-1.129.634a2.53 2.53 0 0 0-.763 1.424c-.03.191-.054 1.031-.054 1.867s.024 1.676.054 1.866c.155.997.979 1.868 1.961 2.074.38.08 3.641.08 4.021 0 1.014-.213 1.827-1.098 1.962-2.134.068-.521.067-3.173-.001-3.643-.146-1.012-.967-1.892-1.961-2.103-.403-.086-3.736-.073-4.09.015m-6.078 2.082.131.131v1.686c0 1.106-.02 1.723-.058 1.794-.123.231-.325.258-1.915.258s-1.792-.027-1.916-.258c-.038-.071-.058-.688-.058-1.794V9.275l.131-.131.131-.131h3.423zm10.02.033.138.165v3.296l-.156.174-.156.175h-1.649c-1.773 0-1.86-.013-1.98-.275-.084-.185-.082-3.29.003-3.449.13-.245.143-.246 1.946-.248l1.716-.002zM8.702 17.118c-.832.303-1.415.933-1.638 1.769-.109.408-.11 3.786-.002 4.193a2.57 2.57 0 0 0 2.088 1.878c.48.069 3.193.069 3.674 0a2.48 2.48 0 0 0 1.454-.763c.653-.699.709-.949.709-3.19 0-1.079-.023-1.854-.06-2.029-.153-.729-.684-1.4-1.375-1.738l-.405-.198-2.08-.013c-1.945-.011-2.099-.005-2.365.091m8.816-.005c-.23.14-.438.403-.502.635-.076.272-.073 3.174.003 3.452.079.288.277.539.529.667.188.096.315.106 1.33.106H20v1.122c0 1.252.022 1.359.336 1.635.298.262.573.294 2.346.274 1.547-.017 1.56-.018 1.79-.15.143-.082.286-.225.373-.373l.142-.241v-1.733c0-1.956-.006-1.988-.418-2.317l-.205-.163-1.195-.017-1.196-.016v-1.119c0-.993-.011-1.142-.101-1.317-.115-.226-.227-.335-.469-.458-.148-.075-.415-.087-1.947-.086-1.636 0-1.789.008-1.938.099m-4.722 2.012.164.138v3.448l-.164.138-.164.138h-1.626c-1.656 0-1.774-.013-1.924-.209-.093-.121-.093-3.462 0-3.582.151-.195.253-.206 1.914-.208l1.636-.001zm-10.223 3.95c-.283.139-.477.403-.549.748-.106.51-.037 2.598.103 3.137.193.74.496 1.265 1.045 1.814 1.016 1.015 1.883 1.282 4.036 1.244 1.107-.02 1.265-.064 1.557-.431.337-.422.217-1.11-.247-1.417l-.216-.143L6.911 28l-1.391-.027-.347-.165a2.03 2.03 0 0 1-.981-.981l-.165-.347L4 25.067c-.028-1.493-.044-1.591-.303-1.825-.273-.247-.802-.326-1.124-.167m25.969.026c-.135.067-.29.204-.373.329l-.142.215-.029 1.391c-.026 1.285-.038 1.414-.15 1.697-.17.427-.569.848-1.011 1.066l-.354.174-1.419.027-1.419.027-.221.146a1.03 1.03 0 0 0-.365 1.23c.109.262.412.498.726.565.342.073 1.948.076 2.588.004 1.738-.195 3.053-1.327 3.498-3.012.093-.351.118-.639.141-1.627.02-.834.009-1.294-.036-1.51-.146-.701-.806-1.033-1.434-.722"/></svg>

<svg width="32" height="32" viewBox="0 0 32 32" fill="none" xmlns="http://www.w3.org/2000/svg"><path d="M5.019 2.131 C 3.932 2.398,2.894 3.240,2.419 4.240 C 2.060 4.996,2.011 5.305,2.005 6.853 C 1.999 8.412,2.004 8.433,2.413 8.763 C 2.833 9.103,3.522 8.983,3.830 8.518 L 3.973 8.302 4.000 6.909 L 4.027 5.517 4.200 5.166 C 4.408 4.744,4.789 4.369,5.215 4.170 C 5.516 4.029,5.540 4.026,6.911 4.000 L 8.302 3.973 8.518 3.830 C 8.980 3.524,9.102 2.832,8.768 2.418 C 8.457 2.035,8.413 2.026,6.827 2.031 C 5.651 2.034,5.347 2.051,5.019 2.131 M23.547 2.111 C 23.459 2.156,23.330 2.246,23.260 2.310 C 22.836 2.699,22.925 3.496,23.429 3.830 L 23.645 3.973 25.063 4.000 L 26.480 4.027 26.827 4.192 C 27.267 4.401,27.599 4.733,27.808 5.173 L 27.973 5.520 27.974 6.853 C 27.974 8.361,27.994 8.453,28.392 8.770 C 28.575 8.916,28.635 8.933,28.956 8.933 C 29.402 8.933,29.688 8.770,29.858 8.417 C 29.961 8.204,29.970 8.083,29.981 6.827 C 29.994 5.246,29.958 5.018,29.567 4.227 C 29.044 3.168,27.987 2.348,26.830 2.103 C 26.300 1.990,23.766 1.996,23.547 2.111 M8.960 7.045 C 8.328 7.169,7.576 7.736,7.286 8.309 C 7.008 8.857,6.987 9.048,6.987 10.987 C 6.987 12.925,7.008 13.117,7.286 13.665 C 7.459 14.007,7.938 14.486,8.297 14.678 C 8.829 14.963,9.037 14.987,10.987 14.987 C 12.937 14.987,13.144 14.963,13.676 14.678 C 14.023 14.493,14.493 14.023,14.678 13.676 C 14.963 13.144,14.987 12.937,14.987 10.987 C 14.987 9.037,14.963 8.829,14.678 8.297 C 14.356 7.694,13.636 7.165,12.966 7.040 C 12.617 6.975,9.298 6.979,8.960 7.045 M18.907 7.062 C 18.474 7.171,18.138 7.360,17.778 7.696 C 17.376 8.072,17.097 8.593,17.015 9.120 C 16.985 9.311,16.961 10.151,16.961 10.987 C 16.961 11.823,16.985 12.663,17.015 12.853 C 17.170 13.850,17.994 14.721,18.976 14.927 C 19.356 15.007,22.617 15.007,22.997 14.927 C 24.011 14.714,24.824 13.829,24.959 12.793 C 25.027 12.272,25.026 9.620,24.958 9.150 C 24.812 8.138,23.991 7.258,22.997 7.047 C 22.594 6.961,19.261 6.974,18.907 7.062 M12.829 9.144 L 12.960 9.275 12.960 10.961 C 12.960 12.067,12.940 12.684,12.902 12.755 C 12.779 12.986,12.577 13.013,10.987 13.013 C 9.397 13.013,9.195 12.986,9.071 12.755 C 9.033 12.684,9.013 12.067,9.013 10.961 L 9.013 9.275 9.144 9.144 L 9.275 9.013 10.987 9.013 L 12.698 9.013 12.829 9.144 M22.849 9.177 L 22.987 9.342 22.987 10.990 L 22.987 12.638 22.831 12.812 L 22.675 12.987 21.026 12.987 C 19.253 12.987,19.166 12.974,19.046 12.712 C 18.962 12.527,18.964 9.422,19.049 9.263 C 19.179 9.018,19.192 9.017,20.995 9.015 L 22.711 9.013 22.849 9.177 M8.702 17.118 C 7.870 17.421,7.287 18.051,7.064 18.887 C 6.955 19.295,6.954 22.673,7.062 23.080 C 7.325 24.065,8.157 24.814,9.150 24.958 C 9.630 25.027,12.343 25.027,12.824 24.958 C 13.380 24.877,13.889 24.610,14.278 24.195 C 14.931 23.496,14.987 23.246,14.987 21.005 C 14.987 19.926,14.964 19.151,14.927 18.976 C 14.774 18.247,14.243 17.576,13.552 17.238 L 13.147 17.040 11.067 17.027 C 9.122 17.016,8.968 17.022,8.702 17.118 M17.518 17.113 C 17.288 17.253,17.080 17.516,17.016 17.748 C 16.940 18.020,16.943 20.922,17.019 21.200 C 17.098 21.488,17.296 21.739,17.548 21.867 C 17.736 21.963,17.863 21.973,18.878 21.973 L 20.000 21.973 20.000 23.095 C 20.000 24.347,20.022 24.454,20.336 24.730 C 20.634 24.992,20.909 25.024,22.682 25.004 C 24.229 24.987,24.242 24.986,24.472 24.854 C 24.615 24.772,24.758 24.629,24.845 24.481 L 24.987 24.240 24.987 22.507 C 24.987 20.551,24.981 20.519,24.569 20.190 L 24.364 20.027 23.169 20.010 L 21.973 19.994 21.973 18.875 C 21.973 17.882,21.962 17.733,21.872 17.558 C 21.757 17.332,21.645 17.223,21.403 17.100 C 21.255 17.025,20.988 17.013,19.456 17.014 C 17.820 17.014,17.667 17.022,17.518 17.113 M12.796 19.125 L 12.960 19.263 12.960 20.987 L 12.960 22.711 12.796 22.849 L 12.632 22.987 11.006 22.987 C 9.350 22.987,9.232 22.974,9.082 22.778 C 8.989 22.657,8.989 19.316,9.082 19.196 C 9.233 19.001,9.335 18.990,10.996 18.988 L 12.632 18.987 12.796 19.125 M2.573 23.075 C 2.290 23.214,2.096 23.478,2.024 23.823 C 1.918 24.333,1.987 26.421,2.127 26.960 C 2.320 27.700,2.623 28.225,3.172 28.774 C 4.188 29.789,5.055 30.056,7.208 30.018 C 8.315 29.998,8.473 29.954,8.765 29.587 C 9.102 29.165,8.982 28.477,8.518 28.170 L 8.302 28.027 6.911 28.000 L 5.520 27.973 5.173 27.808 C 4.733 27.599,4.401 27.267,4.192 26.827 L 4.027 26.480 4.000 25.067 C 3.972 23.574,3.956 23.476,3.697 23.242 C 3.424 22.995,2.895 22.916,2.573 23.075 M28.542 23.101 C 28.407 23.168,28.252 23.305,28.169 23.430 L 28.027 23.645 27.998 25.036 C 27.972 26.321,27.960 26.450,27.848 26.733 C 27.678 27.160,27.279 27.581,26.837 27.799 L 26.483 27.973 25.064 28.000 L 23.645 28.027 23.424 28.173 C 23.036 28.430,22.877 28.967,23.059 29.403 C 23.168 29.665,23.471 29.901,23.785 29.968 C 24.127 30.041,25.733 30.044,26.373 29.972 C 28.111 29.777,29.426 28.645,29.871 26.960 C 29.964 26.609,29.989 26.321,30.012 25.333 C 30.032 24.499,30.021 24.039,29.976 23.823 C 29.830 23.122,29.170 22.790,28.542 23.101 " fill="#1A1C1F" stroke="none" fill-rule="evenodd"></path></svg>
